icons/thunderbird-dark.svg

<svg width="256" height="256" viewBox="0 0 256 256" fill="none" xmlns="http://www.w3.org/2000/svg">
<rect width="256" height="256" rx="60" fill="#282828"/>
<path d="M114.338 83.3462H114.352C119.194 66.4163 140.297 58.1523 161.802 58.1523C176.662 58.1523 190.001 62.8567 199.146 70.3252C193.689 70.5825 188.3 71.6534 183.159 73.5024C190.548 76.249 196.896 80.4744 201.601 85.7017C198.051 85.0906 194.452 84.8186 190.852 84.8887C199.701 97.7082 204.429 112.922 204.404 128.5C204.404 170.973 169.973 205.404 127.5 205.404C85.6816 205.404 50.5957 170.391 50.5957 128.5C50.5957 121.884 51.4746 115.053 53.1819 108.646C53.6301 107.301 54.2541 106.011 55.0825 105.539C56.1196 104.948 57.0645 106.71 57.2161 107.283C58.3406 111.495 59.8537 115.594 61.7358 119.526C61.571 110.746 65.3218 102.748 70.481 95.8311C73.9219 91.219 77.1123 86.9453 78.5845 74.6121C78.6834 73.7837 79.4678 73.1882 80.261 73.4475C91.4583 77.1126 97.4436 95.7585 96.5142 111.35C102.699 112.236 102.671 105.774 102.671 105.774C100.693 99.696 102.012 88.3999 114.316 83.3462H114.338Z" fill="url(#paint0_linear_75_36)"/>
<path opacity="0.9" d="M201.888 108.916C203.758 151.213 168.987 187.681 126.586 187.681C86.8923 187.681 54.3662 157.001 51.4241 118.061C50.8991 121.707 50.6232 125.385 50.5979 129.069C50.8989 170.734 85.8992 205.404 127.502 205.404C169.975 205.404 204.406 170.973 204.406 128.5C204.406 121.732 203.53 115.169 201.888 108.916Z" fill="url(#paint1_radial_75_36)"/>
<path style="mix-blend-mode:screen" d="M125.626 88.9514C124.797 87.4858 120.972 85.3171 119.3 84.9392C125.628 64.6694 157.866 58.4468 177.598 62.0327C185.809 63.5269 196.035 68.0005 199.146 70.3252C190.001 62.8567 176.659 58.1523 161.802 58.1523C140.297 58.1523 119.194 66.4163 114.352 83.3462H114.316C102.012 88.3999 100.693 99.7004 102.671 105.776C104.569 98.5271 113.602 89.6194 125.626 88.9514Z" fill="url(#paint2_radial_75_36)"/>
<path d="M147.974 74.9526C130.699 78.3518 125.054 79.4636 119.273 84.959C125.766 67.7698 142.34 64.2849 162.089 72.1204C157.389 73.0893 152.684 74.0342 147.974 74.9548V74.9526Z" fill="url(#paint3_linear_75_36)"/>
<path d="M54.7705 106.292C50.0508 125.615 53.6983 148.326 75.1392 167.385C68.7561 160.404 60.9624 134.63 78.1604 116.217C79.3184 114.976 81.3113 115.888 81.375 117.584C82.7922 155.852 113.67 179.224 149.271 174.854C138.24 174.234 101.761 161.457 128.897 156.403C143.081 153.76 165.319 149.618 165.319 129.662C165.319 97.3142 140.308 87.8572 125.14 89.2634C114.76 90.2258 105.521 96.8132 102.677 105.771C103.77 109.302 99.4168 111.774 96.5142 111.359C97.4458 95.7695 91.4605 77.1126 80.261 73.4475C79.47 73.1882 78.6834 73.7837 78.5845 74.6121C77.1123 86.9453 73.9219 91.219 70.4832 95.8311C65.3218 102.75 61.5711 110.746 61.7358 119.526C59.8537 115.594 58.3406 111.495 57.2161 107.283C57.0908 106.809 56.4031 105.484 55.5725 105.422C55.1221 105.389 54.8826 105.829 54.7705 106.292Z" fill="url(#paint4_radial_75_36)"/>
<path style="mix-blend-mode:screen" d="M119.368 158.361C140.251 175.317 182.247 162.604 182.247 121.376C165.293 147.076 143.698 164.803 119.37 158.361H119.368Z" fill="url(#paint5_linear_75_36)"/>
<path style="mix-blend-mode:screen" d="M78.1604 116.217C78.3503 116.005 78.5895 115.842 78.8569 115.744C79.1246 115.646 79.412 115.615 79.6941 115.655C64.3001 134.43 76.7168 167.405 85.2378 175.506C85.7146 176.855 77.1541 169.839 75.9741 168.198C69.4922 162.698 60.2022 135.446 78.1604 116.217Z" fill="url(#paint6_linear_75_36)"/>
<path d="M127.5 159.914C148.387 159.914 165.322 146.098 165.322 129.054C165.322 112.01 148.387 98.1931 127.5 98.1931C109.68 98.1931 89.6697 109.786 89.6785 129.504C89.6873 159.974 121.877 177.503 149.317 174.849C147.256 174.61 134.397 173.926 125.707 164.096C124.923 163.21 123.563 161.663 124.18 160.659C124.795 159.655 126.491 159.912 127.498 159.912L127.5 159.914Z" fill="url(#paint7_linear_75_36)"/>
<path opacity="0.6" d="M161.202 115.031L131.31 143.635C128.658 145.52 125.834 145.656 123.048 143.947L93.7302 115.136C94.5667 113.792 95.5069 112.515 96.5427 111.317L99.6189 114.196C107.318 121.412 113.543 127.241 122.317 134.729C126.276 138.109 127.507 138.043 131.391 134.729C141.428 126.16 148.77 119.678 158.312 111.155C159.376 112.369 160.341 113.666 161.199 115.033L161.202 115.031Z" fill="white"/>
<mask id="mask0_75_36" style="mask-type:luminance" maskUnits="userSpaceOnUse" x="89" y="114" width="77" height="62">
<path d="M165.322 129.054C165.322 146.098 148.387 159.914 127.5 159.914C126.491 159.914 124.797 159.655 124.18 160.661C123.563 161.663 124.923 163.21 125.707 164.096C133.872 173.333 145.718 174.495 148.827 174.801L149.317 174.849C121.877 177.503 89.6873 159.974 89.6785 129.504C89.6499 124.431 91.0617 119.454 93.75 115.152L123.211 141.91C125.307 143.813 128.838 143.813 130.934 141.91L160.953 114.644C163.744 118.946 165.322 123.851 165.322 129.054Z" fill="white"/>
</mask>
<g mask="url(#mask0_75_36)">
<path opacity="0.7" d="M80.918 93.4602H176.514V180.136H80.918V93.4602Z" fill="url(#paint8_linear_75_36)"/>
<g filter="url(#filter0_f_75_36)">
<path fill-rule="evenodd" clip-rule="evenodd" d="M118.72 142.09C113.15 136.294 96.468 117.035 96.468 117.035L97.7578 117.092L123.875 136.597C125.83 138.019 128.621 138.003 130.559 136.564L156.168 117.118L157.526 117.01C157.526 117.01 141.389 135.812 135.208 142.007C129.027 148.201 124.29 147.886 118.72 142.09Z" fill="#458FCD"/>
</g>
</g>
<path d="M132.806 82.7551C136.854 81.4807 136.498 77.4751 136.498 77.4751C136.498 77.4751 134.474 75.0911 130.464 76.4116C126.711 77.6487 126.129 80.3228 126.129 80.3228C126.129 80.3228 128.179 84.2119 132.806 82.7551Z" fill="white"/>
<defs>
<filter id="filter0_f_75_36" x="64.468" y="85.0105" width="125.058" height="93.5347" filterUnits="userSpaceOnUse" color-interpolation-filters="sRGB">
<feFlood flood-opacity="0" result="BackgroundImageFix"/>
<feBlend mode="normal" in="SourceGraphic" in2="BackgroundImageFix" result="shape"/>
<feGaussianBlur stdDeviation="16" result="effect1_foregroundBlur_75_36"/>
</filter>
<linearGradient id="paint0_linear_75_36" x1="77.2881" y1="83.5" x2="185.701" y2="184.623" gradientUnits="userSpaceOnUse">
<stop stop-color="#1B91F3"/>
<stop offset="1" stop-color="#0B68CB"/>
</linearGradient>
<radialGradient id="paint1_radial_75_36" cx="0" cy="0" r="1" gradientUnits="userSpaceOnUse" gradientTransform="translate(77.0881 118.294) rotate(66.5177) scale(65.0303 62.2967)">
<stop offset="0.53" stop-color="#0B4186" stop-opacity="0"/>
<stop offset="1" stop-color="#0B4186" stop-opacity="0.45"/>
</radialGradient>
<radialGradient id="paint2_radial_75_36" cx="0" cy="0" r="1" gradientUnits="userSpaceOnUse" gradientTransform="translate(129.478 91.5859) rotate(-127.997) scale(13.9021 23.0049)">
<stop stop-color="#EF3ACC" stop-opacity="0"/>
<stop offset="1" stop-color="#EF3ACC" stop-opacity="0.64"/>
</radialGradient>
<linearGradient id="paint3_linear_75_36" x1="107.454" y1="109.386" x2="146.465" y2="65.9592" gradientUnits="userSpaceOnUse">
<stop stop-color="#0F5DB0"/>
<stop offset="1" stop-color="#0F5DB0" stop-opacity="0"/>
</linearGradient>
<radialGradient id="paint4_radial_75_36" cx="0" cy="0" r="1" gradientUnits="userSpaceOnUse" gradientTransform="translate(98.4961 170.402) rotate(-64.2624) scale(101.451 125.322)">
<stop offset="0.02" stop-color="#094188"/>
<stop offset="0.97" stop-color="#0B4186" stop-opacity="0"/>
</radialGradient>
<linearGradient id="paint5_linear_75_36" x1="175.822" y1="140.829" x2="157.684" y2="185.365" gradientUnits="userSpaceOnUse">
<stop stop-color="#E247C4" stop-opacity="0"/>
<stop offset="1" stop-color="#E247C4" stop-opacity="0.64"/>
</linearGradient>
<linearGradient id="paint6_linear_75_36" x1="63.342" y1="100.889" x2="79.3228" y2="165.208" gradientUnits="userSpaceOnUse">
<stop offset="0.1" stop-color="#EF3ACC"/>
<stop offset="1" stop-color="#EF3ACC" stop-opacity="0"/>
</linearGradient>
<linearGradient id="paint7_linear_75_36" x1="127.5" y1="109.494" x2="127.5" y2="174.533" gradientUnits="userSpaceOnUse">
<stop stop-color="white"/>
<stop offset="0.91" stop-color="#BEE1FE"/>
<stop offset="1" stop-color="#96CEFD"/>
</linearGradient>
<linearGradient id="paint8_linear_75_36" x1="128.717" y1="146.298" x2="128.717" y2="173.544" gradientUnits="userSpaceOnUse">
<stop stop-color="#BCE0FD"/>
<stop offset="1" stop-color="#88CCFC"/>
</linearGradient>
</defs>
</svg>

<svg xmlns="http://www.w3.org/2000/svg" width="256" height="256" fill="none"><rect width="256" height="256" fill="#282828" rx="60"/><path fill="url(#paint0_linear_75_36)" d="M114.338 83.346h.014c4.842-16.93 25.945-25.194 47.45-25.194 14.86 0 28.199 4.705 37.344 12.173a54.9 54.9 0 0 0-15.987 3.177c7.389 2.747 13.737 6.972 18.442 12.2a57 57 0 0 0-10.749-.813 76.55 76.55 0 0 1 13.552 43.611c0 42.473-34.431 76.904-76.904 76.904-41.818 0-76.904-35.013-76.904-76.904 0-6.616.879-13.447 2.586-19.854.448-1.345 1.072-2.635 1.9-3.107 1.038-.591 1.983 1.171 2.134 1.744a70.4 70.4 0 0 0 4.52 12.243c-.165-8.78 3.586-16.778 8.745-23.695 3.44-4.612 6.631-8.886 8.104-21.219.098-.828.883-1.424 1.676-1.164 11.197 3.665 17.183 22.31 16.253 37.902 6.185.886 6.157-5.576 6.157-5.576-1.978-6.078-.659-17.374 11.645-22.428z"/><path fill="url(#paint1_radial_75_36)" d="M201.888 108.916c1.87 42.297-32.901 78.765-75.302 78.765-39.694 0-72.22-30.68-75.162-69.62a81 81 0 0 0-.826 11.008c.3 41.665 35.301 76.335 76.904 76.335 42.473 0 76.904-34.431 76.904-76.904 0-6.768-.876-13.331-2.518-19.584" opacity=".9"/><path fill="url(#paint2_radial_75_36)" d="M125.626 88.951c-.829-1.465-4.654-3.634-6.326-4.012 6.328-20.27 38.566-26.492 58.298-22.906 8.211 1.494 18.437 5.968 21.548 8.292-9.145-7.468-22.487-12.173-37.344-12.173-21.505 0-42.608 8.264-47.45 25.194h-.036c-12.304 5.054-13.623 16.354-11.645 22.43 1.898-7.249 10.931-16.157 22.955-16.825" style="mix-blend-mode:screen"/><path fill="url(#paint3_linear_75_36)" d="M147.974 74.953c-17.275 3.399-22.92 4.51-28.701 10.006 6.493-17.19 23.067-20.674 42.816-12.839q-7.05 1.454-14.115 2.835z"/><path fill="url(#paint4_radial_75_36)" d="M54.77 106.292c-4.72 19.323-1.072 42.034 20.37 61.093-6.384-6.981-14.178-32.755 3.02-51.168 1.158-1.241 3.151-.329 3.215 1.367 1.417 38.268 32.295 61.64 67.896 57.27-11.031-.62-47.51-13.397-20.374-18.451 14.184-2.643 36.422-6.785 36.422-26.741 0-32.348-25.011-41.805-40.179-40.399-10.38.963-19.619 7.55-22.463 16.508 1.093 3.531-3.26 6.003-6.163 5.588.932-15.59-5.053-34.246-16.253-37.911-.791-.26-1.578.336-1.676 1.164-1.473 12.333-4.663 16.607-8.102 21.22-5.161 6.918-8.912 14.914-8.747 23.694a70.4 70.4 0 0 1-4.52-12.243c-.125-.474-.813-1.799-1.644-1.861-.45-.033-.69.407-.802.87"/><path fill="url(#paint5_linear_75_36)" d="M119.368 158.361c20.883 16.956 62.879 4.243 62.879-36.985-16.954 25.7-38.549 43.427-62.877 36.985z" style="mix-blend-mode:screen"/><path fill="url(#paint6_linear_75_36)" d="M78.16 116.217a1.74 1.74 0 0 1 1.534-.562c-15.394 18.775-2.977 51.75 5.544 59.851.477 1.349-8.084-5.667-9.264-7.308-6.482-5.5-15.772-32.752 2.186-51.981" style="mix-blend-mode:screen"/><path fill="url(#paint7_linear_75_36)" d="M127.5 159.914c20.887 0 37.822-13.816 37.822-30.86s-16.935-30.86-37.822-30.86c-17.82 0-37.83 11.592-37.821 31.31.008 30.47 32.198 47.999 59.638 45.345-2.061-.239-14.92-.923-23.61-10.753-.784-.886-2.144-2.433-1.527-3.437.615-1.004 2.311-.747 3.318-.747z"/><path fill="#fff" d="m161.202 115.031-29.892 28.604c-2.652 1.885-5.476 2.021-8.262.312L93.73 115.136a30.4 30.4 0 0 1 2.813-3.819l3.076 2.879c7.699 7.216 13.924 13.045 22.698 20.533 3.959 3.38 5.19 3.314 9.074 0 10.037-8.569 17.379-15.051 26.921-23.574a30.4 30.4 0 0 1 2.887 3.878z" opacity=".6"/><mask id="mask0_75_36" width="77" height="62" x="89" y="114" maskUnits="userSpaceOnUse" style="mask-type:luminance"><path fill="#fff" d="M165.322 129.054c0 17.044-16.935 30.86-37.822 30.86-1.009 0-2.703-.259-3.32.747-.617 1.002.743 2.549 1.527 3.435 8.165 9.237 20.011 10.399 23.12 10.705l.49.048c-27.44 2.654-59.63-14.875-59.639-45.345a26.8 26.8 0 0 1 4.072-14.352l29.461 26.758c2.096 1.903 5.627 1.903 7.723 0l30.019-27.266c2.791 4.302 4.369 9.207 4.369 14.41"/></mask><g mask="url(#mask0_75_36)"><path fill="url(#paint8_linear_75_36)" d="M80.918 93.46h95.596v86.676H80.918z" opacity=".7"/><g filter="url(#filter0_f_75_36)"><path fill="#458FCD" fill-rule="evenodd" d="M118.72 142.09c-5.57-5.796-22.252-25.055-22.252-25.055l1.29.057 26.117 19.505c1.955 1.422 4.746 1.406 6.684-.033l25.609-19.446 1.358-.108s-16.137 18.802-22.318 24.997c-6.181 6.194-10.918 5.879-16.488.083" clip-rule="evenodd"/></g></g><path fill="#fff" d="M132.806 82.755c4.048-1.274 3.692-5.28 3.692-5.28s-2.024-2.384-6.034-1.063c-3.753 1.237-4.335 3.91-4.335 3.91s2.05 3.89 6.677 2.433"/><defs><linearGradient id="paint0_linear_75_36" x1="77.288" x2="185.701" y1="83.5" y2="184.623" gradientUnits="userSpaceOnUse"><stop stop-color="#1B91F3"/><stop offset="1" stop-color="#0B68CB"/></linearGradient><linearGradient id="paint3_linear_75_36" x1="107.454" x2="146.465" y1="109.386" y2="65.959" gradientUnits="userSpaceOnUse"><stop stop-color="#0F5DB0"/><stop offset="1" stop-color="#0F5DB0" stop-opacity="0"/></linearGradient><linearGradient id="paint5_linear_75_36" x1="175.822" x2="157.684" y1="140.829" y2="185.365" gradientUnits="userSpaceOnUse"><stop stop-color="#E247C4" stop-opacity="0"/><stop offset="1" stop-color="#E247C4" stop-opacity=".64"/></linearGradient><linearGradient id="paint6_linear_75_36" x1="63.342" x2="79.323" y1="100.889" y2="165.208" gradientUnits="userSpaceOnUse"><stop offset=".1" stop-color="#EF3ACC"/><stop offset="1" stop-color="#EF3ACC" stop-opacity="0"/></linearGradient><linearGradient id="paint7_linear_75_36" x1="127.5" x2="127.5" y1="109.494" y2="174.533" gradientUnits="userSpaceOnUse"><stop stop-color="#fff"/><stop offset=".91" stop-color="#BEE1FE"/><stop offset="1" stop-color="#96CEFD"/></linearGradient><linearGradient id="paint8_linear_75_36" x1="128.717" x2="128.717" y1="146.298" y2="173.544" gradientUnits="userSpaceOnUse"><stop stop-color="#BCE0FD"/><stop offset="1" stop-color="#88CCFC"/></linearGradient><radialGradient id="paint1_radial_75_36" cx="0" cy="0" r="1" gradientTransform="matrix(25.91203 59.64484 -57.13762 24.8228 77.088 118.295)" gradientUnits="userSpaceOnUse"><stop offset=".53" stop-color="#0B4186" stop-opacity="0"/><stop offset="1" stop-color="#0B4186" stop-opacity=".45"/></radialGradient><radialGradient id="paint2_radial_75_36" cx="0" cy="0" r="1" gradientTransform="matrix(-8.55841 -10.95545 18.12885 -14.16228 129.478 91.586)" gradientUnits="userSpaceOnUse"><stop stop-color="#EF3ACC" stop-opacity="0"/><stop offset="1" stop-color="#EF3ACC" stop-opacity=".64"/></radialGradient><radialGradient id="paint4_radial_75_36" cx="0" cy="0" r="1" gradientTransform="matrix(44.05513 -91.38627 112.88909 54.42112 98.496 170.402)" gradientUnits="userSpaceOnUse"><stop offset=".02" stop-color="#094188"/><stop offset=".97" stop-color="#0B4186" stop-opacity="0"/></radialGradient><filter id="filter0_f_75_36" width="125.058" height="93.535" x="64.468" y="85.01" color-interpolation-filters="sRGB" filterUnits="userSpaceOnUse"><feFlood flood-opacity="0" result="BackgroundImageFix"/><feBlend in="SourceGraphic" in2="BackgroundImageFix" result="shape"/><feGaussianBlur result="effect1_foregroundBlur_75_36" stdDeviation="16"/></filter></defs></svg>
